X:151
T:Pull Out the Knife and Stick It In Again
R:jig
M:6/8
K:Em
D|"Em"~E3 GFE|"D(Bm)"DB,E DB,D|"Em"~E3 GFE|"D"AB^G AFD|
"Em"~E3 GFE|"D(Bm)"DB,E DEF|"C"G2E "D"FED|1 "Bm"B,ED "Em"E2D:|2 "Bm"B,ED "Em"E2e||
|:"Em"edB BAF|"D"EDB, D2e|"Em"edB BAF|"A"AB^c "D"def|
"Em"edB BAF|"D"EDB, DEF|"C"G2E "D"FED| "Bm"B,ED "E,m"E2:|
